X: 7416
T:Mazurka
R:Mazurka
O:Norway
M:3/4
K:E
{B}e2 dc B>G|G<E EG F<G|A>F DF E>G|B2G<E E2|\
{B}e2 dc B>G|G<E EG FG|A>F DF E2 |1E6 :|2 E4||\
B,2|\
C2 D2 E>F|G2 G2 AA|A>F DF E>E|DC B,2 E>D|\
C>B, CD E>F|G2G2 B>B | B>B, CD E2|E4:|
